@extra/icons/0nyX/symbolic/cs-linuxmint.svg

<?xml version="1.0" encoding="UTF-8" standalone="no"?>
<svg
   xmlns:dc="http://purl.org/dc/elements/1.1/"
   xmlns:cc="http://creativecommons.org/ns#"
   xmlns:rdf="http://www.w3.org/1999/02/22-rdf-syntax-ns#"
   xmlns:svg="http://www.w3.org/2000/svg"
   xmlns="http://www.w3.org/2000/svg"
   height="16"
   width="16"
   version="1.1"
   viewBox="0 0 16 16"
   id="svg4512">
  <metadata
     id="metadata9">
    <rdf:RDF>
      <cc:Work
         rdf:about="">
        <dc:format>image/svg+xml</dc:format>
        <dc:type
           rdf:resource="http://purl.org/dc/dcmitype/StillImage" />
        <dc:title></dc:title>
      </cc:Work>
    </rdf:RDF>
  </metadata>
  <defs
     id="defs7" />
  <rect
     x="8"
     y="8.9996986"
     width="3.9997985"
     height="1.9999746"
     style="opacity:0.5;fill:#f1f2f2;stroke-width:3.77945638"
     id="rect4529" />
  <path
     d="m 2,3 v 1.9998993 h 0.9999685 v 5.9998867 c 0,1.107986 0.8919895,1.999975 1.9999749,1.999975 H 13.999962 V 4.9997859 c 0,-1.1077586 -0.891952,-1.9998992 -2.000088,-1.9998992 H 7.0000316 Z m 2.9998678,1.9998993 h 1.0000441 v 2.6386274 h -0.00195 V 10.005676 H 11.003847 V 9.4959026 c 0,0.0078 -0.0036,0.013834 -0.0039,0.021463 V 8.908495 c 0.0012,-4.208e-4 0.0027,4.243e-4 0.0039,0 V 7.5040536 c 0,-0.2967931 -0.211056,-0.509773 -0.50195,-0.509773 -0.288081,0 -0.497829,0.2096237 -0.5019489,0.5019495 3.4e-6,0.00133 0,0.00258 0,0.00389 V 8.9998096 H 8.9995276 V 7.5001215 c 0,-0.00537 0.00189,-0.01028 0.00195,-0.015609 -0.00684,-0.289117 -0.213921,-0.4960914 -0.4999843,-0.4960914 -0.2908858,0 -0.5019495,0.212961 -0.5019495,0.509773 V 8.9997719 H 6.9998808 V 7.5000835 c 0,-0.830989 0.6690016,-1.4999906 1.4999905,-1.4999906 0.3863739,0 0.734613,0.1484116 0.9999686,0.3867139 0.2653178,-0.2381057 0.6134061,-0.3866383 0.9996661,-0.3866383 0.831102,0 1.500066,0.6689637 1.500066,1.5000662 v 2.4999593 c 0,0.553992 -0.445976,0.999968 -0.999968,0.999968 H 5.999761 c -0.5539926,0 -0.9999685,-0.445976 -0.9999685,-0.999968 V 6.000019 Z"
     style="fill:#f1f2f2;stroke-width:3.77945638"
     id="rect4489" />
</svg>

<?xml version="1.0" encoding="UTF-8" standalone="no"?>
<svg xmlns:rdf="http://www.w3.org/1999/02/22-rdf-syntax-ns#" xmlns="http://www.w3.org/2000/svg" height="16" width="16" version="1.1" xmlns:cc="http://creativecommons.org/ns#" xmlns:dc="http://purl.org/dc/elements/1.1/" viewBox="0 0 16 16">
 <metadata>
  <rdf:RDF>
   <cc:Work rdf:about="">
    <dc:format>image/svg+xml</dc:format>
    <dc:type rdf:resource="http://purl.org/dc/dcmitype/StillImage"/>
    <dc:title/>
   </cc:Work>
  </rdf:RDF>
 </metadata>
 <rect opacity=".5" height="2" width="3.9998" y="8.9997" x="8" stroke-width="3.7795" fill="#f1f2f2"/>
 <path stroke-width="3.7795" fill="#f1f2f2" d="m2 3v1.9999h0.99997v5.9999c0 1.108 0.89199 2 2 2h9v-8.0002c0-1.1078-0.89195-1.9999-2.0001-1.9999h-5zm2.9999 1.9999h1v2.6386h-0.00195v2.3675h5.006v-0.5101c0 0.0078-0.0036 0.013834-0.0039 0.021463v-0.6089c0.0012-0.0004208 0.0027 0.0004243 0.0039 0v-1.4044c0-0.29679-0.21106-0.50977-0.50195-0.50977-0.28808 0-0.49783 0.20962-0.50195 0.50195 0.0000034 0.00133 0 0.00258 0 0.00389v1.4996h-1.0005v-1.4997c0-0.00537 0.00189-0.01028 0.00195-0.015609-0.00684-0.28912-0.21392-0.49609-0.49998-0.49609-0.29089 0-0.50195 0.21296-0.50195 0.50977v1.5016h-0.9996v-1.4997c0-0.83099 0.669-1.5 1.5-1.5 0.38637 0 0.73461 0.14841 0.99997 0.38671 0.26532-0.23811 0.61341-0.38664 0.99967-0.38664 0.8311 0 1.5001 0.66896 1.5001 1.5001v2.5c0 0.55399-0.44598 0.99997-0.99997 0.99997h-5.0002c-0.55399 0-0.99997-0.44598-0.99997-0.99997v-4z"/>
</svg>
